X:1
T:The Two Sisters
M:6/8
L:1/8
K:G
 z4 z D| DGG GAB| A2 F D3| F3 D2 D| DGG GAB| A2 F D2 B| c2 cA-B c|\
 d3- d2 B| ddd dcB| e2 e d2 c| B2 G G2 B| A2 F D3| DEF G3|
M:9/8
 ABc d3 ABc|
M:6/8
 BAG A2 F| G3- G2 z|

